X:8
T:Cotillion. HSJJ.008
M:2/4
L:1/8
Q:1/4=100
S:HSJ Jackson,Wyresdale,Lancs.1823
R:.Cotillion
O:England
A:Lancashire
H:1823
Z:vmp.Chris Partington.
K:G
GGGG|A/B/c/A/ BG|g/d/B/G/ AB/c/|BABG|!
GGGG|A/B/c/A/ BG|g/d/c/B/ AB/c/|BAG2:|!
B^cdd|eef2|eg fe/d/|^cdeA|!
B^cdd|eef2|eg fe/d/|f/e/d/c/” D.C.”d2|]

